src/images/add-community.svg

<svg height="18" viewBox="0 0 18 18" width="18" xmlns="http://www.w3.org/2000/svg"><g fill="none" fill-rule="evenodd"><path d="m15.508.024a2.5 2.5 0 0 1 2.492 2.502l-.024 12.982a2.5 2.5 0 0 1 -2.502 2.492l-12.982-.024a2.5 2.5 0 0 1 -2.492-2.502l.024-12.982a2.5 2.5 0 0 1 2.502-2.492z" fill="#42c47f" fill-rule="nonzero"/><path d="m12.496 8.507-2.996-.005.006-2.996a.5.5 0 0 0 -.999-.002l-.005 2.996-2.996-.006a.5.5 0 0 0 -.002.999l2.996.005-.006 2.996a.5.5 0 0 0 .999.002l.005-2.996 2.996.006a.5.5 0 1 0 .002-.999z" fill="#fff" stroke="#fff" stroke-width=".5"/></g></svg>

<svg xmlns="http://www.w3.org/2000/svg" width="18" height="18" viewBox="0 0 18 18">
    <g fill="none" fill-rule="evenodd">
        <path fill="#42C47F" fill-rule="nonzero" d="M15.508.024A2.5 2.5 0 0 1 18 2.526l-.024 12.982A2.5 2.5 0 0 1 15.474 18l-12.982-.024A2.5 2.5 0 0 1 0 15.474L.024 2.492A2.5 2.5 0 0 1 2.526 0l12.982.024z"/>
        <path fill="#FFF" stroke="#FFF" stroke-width=".5" d="M12.496 8.507L9.5 8.502l.006-2.996a.5.5 0 0 0-.999-.002L8.502 8.5l-2.996-.006a.5.5 0 0 0-.002.999l2.996.005-.006 2.996a.5.5 0 0 0 .999.002L9.498 9.5l2.996.006a.5.5 0 1 0 .002-.999z"/>
    </g>
</svg>
